X:12
T:Galliard:Earl of Salisbury
C:Byrd
K:A minor
M:3/2
L:1/4
P:A
 A4^G2 | A3/B/cdB2 | c2B4 | B2zGAB | c3/d/e2d2 | c2zAB^c | d3/e/f2e2 | d6 ::
P:B
e3/d/cedc | B3/A/Ggfe | d3ef2 | e2zedB | c2zcBG | A2B3A | A3^G/^F/GF/G/ | A6 :| 

